X: 38754
T: Stronsay, The
R: waltz
M: 3/4
K: Amajor
ed|:c3B cd|e2 c2 A2|d3c de|f2 a2 af|
e2 c2 B2|A2 B2 c2|B6-|B4 ed|
c3 B cd|e2 c2 A2|d3 c de|f2 a2 af|
e2 c2 A2|B4 e2|A6-|A4 e2:|
a3g af|e2 c2 A2|d3c de|f2 a2 af|
e2 c2 B2|A2 B2 c2|B6-|B4 e2|
[1 a3g af|e2 c2 A2|d3c de|f2 a2 af|
e2 c2 A2|B4 e2|A6-|A4 e2:|
[2 c3B cd|e2 c2 A2|d3c de|f2 a2 af|
e2 c2 A2|B4 e2|A6-|A6||

